packages/ui-icons/svg/Line/comments-on.svg

<svg viewBox="0 0 1920 1920" version="1.1" xmlns="http://www.w3.org/2000/svg">
    <path d="M853.333333,309.653333 L853.333333,416.426667 L106.666667,416.426667 L106.666667,1459.62667 L372.016412,1459.52878 L371.946667,1706.66667 L701.5892,1459.52878 L1610.24,1459.62667 L1610.24,853.333333 L1716.90667,853.333333 L1716.98189,1566.19545 L737.141594,1566.19545 L265.349746,1920 L265.349746,1566.19545 L5.7411853e-11,1566.19545 L5.7411853e-11,309.653333 L853.333333,309.653333 Z M1840.15059,0 L1920,79.8494118 L1444.51765,555.331765 L1162.50353,273.430588 L1242.35294,193.581176 L1444.51765,395.632941 L1840.15059,0 Z" fill-rule="nonzero" stroke="none" stroke-width="1"/>
</svg>

<svg viewBox="0 0 1920 1920" xmlns="http://www.w3.org/2000/svg">
    <path d="M853.333 309.653v106.774H106.667v1043.2l265.35-.098-.07 247.138 329.642-247.138 908.651.098V853.333h106.667l.075 712.862h-979.84L265.35 1920v-353.805H0V309.653h853.333ZM1840.151 0 1920 79.85l-475.482 475.482-282.014-281.901 79.849-79.85 202.165 202.052L1840.15 0Z"/>
</svg>
